X:45
T:Laurel's reel
S:Fiddle Sticks
Z:robin.beech@mcgill.ca
R:reel
M:4/4
K:A
C3D EFAB | cfec BAFA | BFF2 dcBA | GBAF EFED |
C3D EFAB | cfec BAFA | BFF2 dcBA |1 EAGB AFED :|2
EAGB ABcd |: e3e edcd | eaag aece | fBB2 dcBA |1
GBAF EBcd | e3e edcd | eaa2 aece | fBB2 dcBA |
EAGB ABcd :|2 GBAF EFED | C3D EFAB |
cfec BAFA | BFF2 dcBA | EAGB AFED |]
